lib/assets/icons/svg/outlined-action-check.svg

<svg xmlns="http://www.w3.org/2000/svg" viewBox="0 0 24 24"><path d="M11.167 15.8h-.09a1 1 0 0 1-.71-.37l-2.44-2.92a.51.51 0 0 1 .08-.71.49.49 0 0 1 .7.07l2.45 2.91 4.12-6.35a.5.5 0 0 1 .84.54l-4.11 6.35a1.479 1.479 0 0 1-.21.23.996.996 0 0 1-.63.25zm.84 5.7C4.694 21.5.123 13.583 3.78 7.25 7.436.917 16.578.917 20.234 7.25A9.497 9.497 0 0 1 21.507 12a9.511 9.511 0 0 1-9.5 9.5zm0-18c-6.543 0-10.633 7.083-7.361 12.75 3.271 5.667 11.451 5.667 14.722 0A8.5 8.5 0 0 0 20.507 12a8.51 8.51 0 0 0-8.5-8.5z"/></svg>

<svg viewBox="0 0 24 24" xmlns="http://www.w3.org/2000/svg">
  <path  d="M 11.167 15.8 L 11.077 15.8 C 10.799 15.781 10.542 15.647 10.367 15.43 L 7.927 12.51 C 7.756 12.291 7.791 11.975 8.007 11.8 C 8.218 11.622 8.535 11.653 8.707 11.87 L 11.157 14.78 L 15.277 8.43 C 15.502 8.118 15.981 8.166 16.139 8.517 C 16.204 8.663 16.196 8.831 16.117 8.97 L 12.007 15.32 C 11.945 15.404 11.875 15.481 11.797 15.55 C 11.623 15.704 11.4 15.793 11.167 15.8 Z M 12.007 21.5 C 4.694 21.5 0.123 13.583 3.78 7.25 C 7.436 0.917 16.578 0.917 20.234 7.25 C 21.068 8.694 21.507 10.332 21.507 12 C 21.501 17.244 17.251 21.494 12.007 21.5 Z M 12.007 3.5 C 5.464 3.5 1.374 10.583 4.646 16.25 C 7.917 21.917 16.097 21.917 19.368 16.25 C 20.114 14.958 20.507 13.492 20.507 12 C 20.501 7.308 16.699 3.506 12.007 3.5 Z"/>
</svg>
